!!!COA: des Prez, Josquin
!!!CDT: ~1450-1521/08/27
!!!COA2: Compere
!!!OPR: Missa Allez regretz II
!!!ONM: 1
!!!OTL: Kyrie
!!!AGN: Mass; Kyrie
!!!SCT: NJE 7.2
!!!SCA: New Josquin Edition 7.2
!!!voices: 4
**kern	**kern	**kern	**kern
*part4	*part3	*part2	*part1
*staff4	*staff3	*staff2	*staff1
*Ivox	*Ivox	*Ivox	*Ivox
*I"Bassus	*I"Tenor	*I"Contratenor	*I"Superius
*I'B	*I'T	*I'Ct	*I'S
*>[A,B,C]	*>[A,B,C]	*>[A,B,C]	*>[A,B,C]
*>A	*>A	*>A	*>A
*clefF4	*clefGv2	*clefGv2	*clefG2
*k[b-]	*k[b-]	*k[b-]	*k[b-]
*d:	*d:	*d:	*d:
*M2/1	*M2/1	*M2/1	*M2/1
*met(C|)	*met(C|)	*met(C|)	*met(C|)
!!section: Kyrie I
!!!OMD: Kyrie I
=1	=1	=1	=1
1.C	0r	0c	0r
2D	.	.	.
=2	=2	=2	=2
1E	0r	1c	0r
1F	.	1A	.
=3	=3	=3	=3
1.G	0r	2G	0r
.	.	1B-	.
4F	.	4A	.
4G	.	4G	.
=4	=4	=4	=4
2.A	0c	1F	1.c
4G	.	.	.
2F	.	2r	.
4E	.	2F	2d
4D	.	.	.
=5	=5	=5	=5
1C	1c	1G	1e
1D	1A	1F	1f
=6	=6	=6	=6
0GG	2G	2.B-	1.g
.	1B-	.	.
.	.	4c	.
.	.	2d	.
.	4A	2e	4f
.	4G	.	4g
=7	=7	=7	=7
0D	0F	1.f	0a
.	.	4e	.
.	.	4d	.
=8	=8	=8	=8
1C	1G	1e	1r
1BB-	1B-	1d	[1g
=9	=9	=9	=9
1C	0A	1r	2g]
.	.	.	4f
.	.	.	4e
1D	.	1d	2f
.	.	.	4g
.	.	.	4a
=10	=10	=10	=10
1GG	1.G	1.d	1b-
1G	.	.	1b-
.	4A	2e	.
.	4B-	.	.
=11	=11	=11	=11
*	*M2/1	*	*
*	*met(C)	*	*
*	*rscale:1/2	*	*
2.F	0c	2f	1a
.	.	2c	.
4E	.	.	.
1C	.	1e-X	2g
.	.	.	[2g
=12	=12-	=12	=12
1G	[0B-	1d	2g]
.	.	.	4f
.	.	.	4e
2r	.	1G	2d
2GG	.	.	[2g
=13	=13	=13	=13
1BB-	1B-]	1d	4g]
.	.	.	4f
.	.	.	1f
1C	2A	1c	.
.	2G	.	2e
=14	=14-	=14	=14
1D	1F	2A	1f
.	.	2B-	.
2AA	1E	2c	1r
2C	.	[2g	.
*	*rscale:1	*	*
=15	=15	=15	=15
*	*M2/1	*	*
*	*met(C|)	*	*
2D	2F	4g]	0r
.	.	4f	.
2F	2A	1f	.
1C	1G	.	.
.	.	2e	.
=16	=16	=16	=16
0FF	[0F	1.f	1r
.	.	.	1a
.	.	4e	.
.	.	4d	.
=17	=17	=17	=17
1r	0F]	2c	1a
.	.	1f	.
1FF	.	.	1a
.	.	4e	.
.	.	4d	.
=18	=18	=18	=18
*	*M2/1	*	*
*	*met(C)	*	*
*	*rscale:1/2	*	*
1C	0r	1e	1g
1C	.	1e	1cc
=19	=19-	=19	=19
1D	0F	1d	2b-
.	.	.	1a
1D	.	1r	.
.	.	.	4g
.	.	.	4f
=20	=20	=20	=20
2.C	0c	1.G	1e
4D	.	.	.
2E	.	.	1r
[2F	.	[2A	.
=21	=21-	=21	=21
2F]	0c	2A]	0r
4E	.	4G	.
4D	.	4F	.
2E	.	2G	.
2F	.	2A	.
=22	=22	=22	=22
2.D	0d	2.F	0r
4E	.	4G	.
2F	.	2A	.
[2G	.	[2B-	.
=23	=23-	=23	=23
2G]	0d	4B-]	0r
.	.	4A	.
2F	.	1A	.
1B-	.	.	.
.	.	2G	.
*	*rscale:1	*	*
=24	=24	=24	=24
*	*M2/1	*	*
*	*met(C|)	*	*
0A	1.c	1A	1.e
.	.	1r	.
.	4B-	.	4d
.	4A	.	4c
=25	=25	=25	=25
0r	2B-	0r	2d
.	2A	.	1f
.	2F	.	.
.	[2G	.	[2e
=26	=26	=26	=26
1r	2G]	0r	2e]
.	1A	.	4d
.	.	.	4c
1E	.	.	1Bni
.	2G#Xi	.	.
=27	=27	=27	=27
1.F	[0A	0r	0A
4E	.	.	.
4D	.	.	.
=28	=28	=28	=28
1C	0A]	1r	0r
1D	.	1A	.
=29	=29	=29	=29
0AA	1r	1.c	0r
.	1A	.	.
.	.	4d	.
.	.	4e	.
=30	=30	=30	=30
0D	1A	1.f	0r
.	1A	.	.
.	.	2e	.
=31	=31	=31	=31
1GG	1B-	1d	0r
1AA	1A	1c	.
=32	=32	=32	=32
2.BB-	2G	0d	1r
.	2.F	.	.
4C	.	.	.
4D	.	.	1A
4E	4E	.	.
2F	2D	.	.
=33	=33	=33	=33
*	*M2/1	*	*
*	*met(C)	*	*
*	*rscale:1/2	*	*
1G	0C	0e	1.c
1G	.	.	.
.	.	.	4d
.	.	.	4e
=34	=34-	=34	=34
0F	0c	0A	1.f
.	.	.	2e
=35	=35	=35	=35
*	*M2/1	*	*
*	*met(C|)	*	*
*	*rscale:1	*	*
!	!	!LO:N:vis=0	!
1G	2.B-	1r	1d
.	4A	.	.
=-	=	=-	=-
*	*M2/1	*	*
*	*met(O|)	*	*
*	*rscale:1/2	*	*
!!starting here, the next barline is after the first note of m. 38.
1E	1G	1r	1c
=36	=36-	=36	=36
1.D	0d	[0A	0d
4C	.	.	.
4BB-	.	.	.
=37	=37-	=37	=37
1AA	1.c	0A]	1.e
1A	.	.	.
.	4B-/L	.	2c
.	4A/J	.	.
=38	=38-	=38	=38
1G	1B-	1r	2d
.	.	.	2e
=-	=	=-	=-
*	*M2/1	*	*
*	*met(C|)	*	*
*	*rscale:1	*	*
2F	1F	1A	[1f
4E	.	.	.
4D	.	.	.
=39	=39	=39	=39
*	*M2/1	*	*
*	*met(C)	*	*
*	*rscale:1/2	*	*
0C	0G	0c	2f]
.	.	.	4e
.	.	.	4d
.	.	.	1e
=40	=40	=40	=40
*	*M2/1	*	*
*	*met(3)	*	*
*	*rscale:1/2	*	*
1r	3%4F	1c	0f
1D	.	[1f	.
.	3%2r	.	.
=41	=41-	=41	=41
!	!LO:N:vis=1.	!	!
0D	3%4.F	2f]	0a
.	.	2e	.
.	.	[1d	.
=42	=42	=42	=42
!	!LO:N:vis=1.	!	!
0E	3%4.G	2d]	0g
.	.	4c#Xi	.
.	.	4Bni	.
.	.	1c#Xi	.
=43	=43-	=43	=43
0D	3%2A	0d	1f
.	3%4B-	.	.
.	.	.	1d
=44	=44	=44	=44
1C	3%4c	0e	1g
1G	.	.	2r
.	3%2B-	.	.
.	.	.	2g
=45	=45-	=45	=45
!	!LO:N:vis=1.	!	!
1F	3%4.c	0f	2.a
.	.	.	4b-
1A	.	.	[1cc
=46	=46	=46	=46
!	!LO:N:vis=1.	!	!
0G	3%4.d	[0gl	2cc]
.	.	.	4bni
.	.	.	4a
.	.	.	1bni
=47	=47-	=47	=47
0Cl	0cl	0g]	0ccl
!!LO:LB:i:g=z
*	*rscale:1	*	*
=48||	=48||	=48||	=48||
*>B	*>B	*>B	*>B
*clefF4	*clefGv2	*clefGv2	*clefG2
*k[b-]	*k[b-]	*k[b-]	*k[b-]
*M2/1	*M2/1	*M2/1	*M2/1
*met(C|)	*met(O)	*met(C|)	*met(C|)
*	*rscale:1/2	*	*
!!section: Christe
!!!OMD: Christe
!	!LO:N:vis=0.	!	!
1C	0r	0c	0r
4C	.	.	.
4D	.	.	.
4E	.	.	.
4F	.	.	.
=49	=49-	=49	=49
2E	0ryy	1c	1r
2C	.	.	.
1G	.	[1B-	1d
=50	=50-	=50	=50
1G	0ryy	1B-]	4d
.	.	.	4e
.	.	.	4f
.	.	.	4g
1r	.	1B-	2f
.	.	.	2d
=51	=51	=51	=51
!	!LO:N:vis=0.	!	!
2r	0r	0A	1a
2.AA	.	.	.
.	.	.	1r
4BB-	.	.	.
4C	.	.	.
4D	.	.	.
=52	=52-	=52	=52
2C	0ryy	1A	1r
2AA	.	.	.
1E	.	1G	2r
.	.	.	[2c
=53	=53-	=53	=53
1D	0ryy	0A	4c]
.	.	.	4d
.	.	.	4e
.	.	.	4f
1r	.	.	2e
.	.	.	2c
=54	=54	=54	=54
!	!LO:N:vis=0.	!	!
1E	0r	1G	1g
2D	.	2.A	2f
2C	.	.	[2e
.	.	4G	.
=55	=55-	=55	=55
2D	0ryy	4F	2e]
.	.	4E	.
2BB-	.	2D	1d
1AA	.	1E	.
.	.	.	2c#Xi
=56	=56-	=56	=56
1r	0ryy	1D	0d
1D	.	1r	.
=57	=57	=57	=57
!	!LO:N:vis=0.	!	!
1D	0r	2D	0r
.	.	2.F	.
1D	.	.	.
.	.	4G	.
.	.	4A	.
.	.	4B-	.
=58	=58-	=58	=58
2.C	0ryy	2.A	0r
4BB-	.	4G	.
4AA	.	4F	.
4GG	.	4E	.
[2FF	.	2F	.
=59	=59-	=59	=59
2FF]	0ryy	1A	0r
1F	.	.	.
.	.	1G	.
2E	.	.	.
=60	=60	=60	=60
!	!LO:N:vis=0.	!	!
2F	0r	0F	1r
2F	.	.	.
1D	.	.	1f
=61	=61-	=61	=61
2C	0ryy	1c	2g
2.F	.	.	1a
.	.	2d	.
4E	.	.	.
2C	.	[2e	[2g
=62	=62-	=62	=62
2G	0ryy	2e]	2g]
2F	.	2f	1cc
1G	.	1d	.
.	.	.	2b-
=63	=63	=63	=63
!	!LO:N:vis=0.	!	!
2A	0r	1c	2cc
1F	.	.	1a
.	.	2r	.
4E	.	2F	4g
4D	.	.	4f
=64	=64-	=64	=64
1C	0ryy	1G	1e
2D	.	2F	2d
2C	.	[2c	[2g
=65	=65-	=65	=65
2.AA	0ryy	2c]	2g]
.	.	4B-	1f
4BB-	.	4A	.
1C	.	1G	.
.	.	.	2e
=66	=66	=66	=66
!	!LO:N:vis=0.	!	!
1FF	[y0c	1F	1f
1F	.	1r	1a
=67	=67-	=67	=67
2E	0c_yy	1r	2g
1F	.	.	1a
.	.	1f	.
4E	.	.	4g
4D	.	.	4f
=68	=68-	=68	=68
1C	0c]yy	1g	1e
4C	.	1e	2r
4D	.	.	.
4E	.	.	[2g
4F	.	.	.
=69	=69	=69	=69
1G	0B-	2.d	4g]
.	.	.	4a
.	.	.	4b-
.	.	4e	4cc
2r	.	2f	2dd
[2GG	.	2g	[2b-
=70	=70-	=70	=70
!	!LO:N:vis=0	!	!
4GG]	[y0B-	1d	2b-]
4AA	.	.	.
4BB-	.	.	4a
4C	.	.	4g
2D	.	2r	2f
[2E-Xi	.	[2G	[2g
=71	=71-	=71	=71
2E-]	0B-]yy	4G]	2g]
.	.	4A	.
4D	.	4B-	4f
4C	.	4c	4e
2BB-	.	[1d	2d
2GG	.	.	2g
=72	=72	=72	=72
!	!LO:N:vis=0	!	!
1D	[y0A	1d]	0f
1D	.	2d	.
.	.	[2f	.
=73	=73-	=73	=73
2D	0A]yy	4f]	2r
.	.	4e	.
2.F	.	2d	2.a
.	.	2c	.
4E	.	.	4g
2D	.	2d	2f
=74	=74-	=74	=74
2C	0A	2A	2e
2D	.	2f	2d
2.AA	.	2e	1a
.	.	[2c	.
4BB-	.	.	.
=75	=75	=75	=75
2C	0A	4c]	2r
.	.	4B-	.
2.D	.	4A	2.a
.	.	4G	.
.	.	2F	.
4E	.	.	4g
2F	.	[2c	2f
=76	=76-	=76	=76
2C	0G	2c]	2e
2.G	.	1d	2d
.	.	.	1g
4F	.	.	.
2E	.	2c	.
=77	=77-	=77	=77
2.D	1.A	1d	2f
.	.	.	4e
4E	.	.	4d
2F	.	1r	2c
2C	2G	.	[2e
=78	=78	=78	=78
*	*M2/1	*	*
*	*met(C|)	*	*
*	*rscale:1	*	*
1D	2F	0A	4e]
.	.	.	4d
.	2D	.	1d
1AA	1E	.	.
.	.	.	2c#Xi
=79	=79-	=79	=79
*	*M2/1	*	*
*	*met(C)	*	*
*	*rscale:1/2	*	*
2.A	1.D	2.F	1d
4G	.	4G	.
2F	.	4A	1r
.	.	4B-	.
2E	2E	[2c	.
=80	=80-	=80	=80
1D	1F	2c]	1d
.	.	2Bni	.
1C	1G	[1c	[1e
=81	=81	=81	=81
2r	1.A	1c]	0e]
2.AA	.	.	.
.	.	1c	.
4BB-	.	.	.
2C	2G	.	.
=82	=82-	=82	=82
2D	2F	2r	1A
2AA	2E	2c	.
1D	1F	2.A	1r
.	.	4B-	.
=83	=83	=83	=83
*	*M2/1	*	*
*	*met(C|)	*	*
*	*rscale:1	*	*
2C	2A	2c	2r
2BB-	2B-	2d	1f
1C	1G	1c	.
.	.	.	2e
=84	=84	=84	=84
*	*M3/1	*	*
*	*met(O)	*	*
*	*rscale:1/2	*	*
1FF	0F	1A	1f
2r	.	1r	1d
[2F	.	.	.
=85	=85-	=85	=85
2F]	1r	1r	0c
2E	.	.	.
!	!LO:N:vis=1	!	!
1F	[y1f	2r	.
.	.	[2c	.
=86	=86-	=86	=86
1D	1f]yy	2c]	0r
.	.	2B-	.
1C	1e	1c	.
*	*rscale:1	*	*
=87	=87	=87	=87
*	*M2/1	*	*
*	*met(C|)	*	*
1r	1c	1A	2r
.	.	.	1cc
1G	1d	2G	.
.	.	[2g	2b-
=88	=88	=88	=88
1C	[0cl	2g]	1cc
.	.	4f	.
.	.	4e	.
1F	.	1f	1a
=89	=89-	=89	=89
0Cl	0c]	0el	0gl
*	*rscale:1	*	*
!!LO:LB:i:g=z
=||	=||	=||	=||
*>C	*>C	*>C	*>C
*clefF4	*clefGv2	*clefGv2	*clefG2
*k[b-]	*k[b-]	*k[b-]	*k[b-]
*M2/1	*M2/1	*M2/1	*M2/1
*met(C|)	*met(C)	*met(C|)	*met(C|)
*	*rscale:1/2	*	*
!!section: Kyrie II
!!!OMD: Kyrie II
!	!LO:TX:Z=6:t=Repeat sign indicates twofold tenor statement under different mensuration signs.	!	!
!	!LO:N:vis=0	!	!
[0C	0r	0r	0r
=90	=90-	=90	=90
1C]	0ryy	0r	0r
1D	.	.	.
=91	=91	=91	=91
!	!LO:N:vis=0	!	!
2C	0r	0r	[0cc
2.AA	.	.	.
4BB-	.	.	.
4C	.	.	.
4D	.	.	.
=92	=92-	=92	=92
2E	0ryy	0r	1cc]
1F	.	.	.
.	.	.	1dd
2G	.	.	.
=93	=93	=93	=93
!	!LO:N:vis=0	!	!
2A	0r	[0c	2cc
1F	.	.	1a
4E	.	.	4g
4D	.	.	4f
=94	=94-	=94	=94
1C	0ryy	1c]	1e
1r	.	1d	1f
=95	=95	=95	=95
!	!LO:N:vis=0	!	!
0r	0r	2c	2e
.	.	2A	2f
.	.	4B-	4g
.	.	4A	4f
.	.	4G	4e
.	.	4F	4d
=96	=96-	=96	=96
2r	0ryy	2E	2c
1F	.	2.A	1d
.	.	4B-	.
2E	.	[2c	2g
=97	=97	=97	=97
!	!LO:N:vis=0	!	!
1D	0r	2c]	2f
.	.	2B-	4e
.	.	.	4d
1C	.	2.c	[1e
.	.	4B-	.
=98	=98-	=98	=98
2r	0ryy	2A	1e]
2.C	.	2G	.
.	.	2.c	2r
4BB-	.	.	.
4AA	.	.	2c
4GG	.	4B-	.
=99	=99	=99	=99
!	!LO:N:vis=0	!	!
2FF	0r	4A	2.cc
.	.	4G	.
2.F	.	2F	.
.	.	.	4b-
.	.	2r	4a
4E	.	.	4g
4D	.	[2f	2a
4C	.	.	.
=100	=100-	=100	=100
2D	0ryy	4f]	2.f
.	.	4e	.
1BB-	.	4d	.
.	.	4c	4e
.	.	4d	2d
.	.	4B-	.
2E-X	.	2c	[2g
=101	=101	=101	=101
!	!LO:N:vis=0	!	!
2D	0r	2A	4g]
.	.	.	4f
2BB-	.	2B-	1f
1C	.	1G	.
.	.	.	2e
=102	=102-	=102	=102
1FF	0ryy	1F	1f
1F	.	[1c	1a
=103	=103	=103	=103
1F	0r	2c]	1a
.	.	4B-	.
.	.	4A	.
1F	.	2A	1a
.	.	4G	.
.	.	4F	.
=104	=104-	=104	=104
0C	0c	1E	1g
.	.	1A	1cc
=105	=105	=105	=105
0r	0d	2G	2b-
.	.	2F	1a
.	.	1D	.
.	.	.	4g
.	.	.	4f
=106	=106-	=106	=106
2.AA	1c	0A	1e
4BB-	.	.	.
2C	1A	.	2r
2D	.	.	[2d
=107	=107	=107	=107
2BB-	2B-	0r	2d]
1C	2A	.	1e
.	2G	.	.
2AA	2F	.	2f
=108	=108-	=108	=108
1GG	1E	1r	1g
2.FF	[1F	2.A	1c
4GG	.	4B-	.
=109	=109	=109	=109
2AA	1F]	2c	1r
2BB-	.	2d	.
2C	1E	2.G	1c
[2G	.	.	.
.	.	4A	.
=110	=110-	=110	=110
2G]	0D	2B-	1.d
4F	.	1c	.
4E	.	.	.
1F	.	.	.
.	.	2B-	4c
.	.	.	4d
=111	=111	=111	=111
1.G	0C	1c	0e
.	.	2r	.
[2A	.	[2c	.
=112	=112-	=112	=112
2A]	1F	2c]	1a
4G	.	1d	.
4F	.	.	.
1E	1G	.	1g
.	.	2c	.
=113	=113	=113	=113
2D	1.A	2d	2f
1F	.	1c	1a
4E	2B-	2F	4g
4D	.	.	4f
=114	=114-	=114	=114
1C	1c	2G	1e
.	.	2A	.
2.BB-	[1d	1B-	2d
.	.	.	[2f
4C	.	.	.
=115	=115	=115	=115
2.D	1d]	2A	4f]
.	.	.	4g
.	.	2.F	2.a
4E	.	.	.
!	!LO:N:vis=2.	!	!
2.F	[y1c	.	.
.	.	4G	4g
.	.	4A	2f
4G	.	4B-	.
=116	=116-	=116	=116
2A	2c]yy	2c	2e
2D	2A	2.d	2f
1G	1B-	.	[1g
.	.	4c	.
.	.	2d	.
=117	=117	=117	=117
1C	1c	2e	2g]
.	.	1c	1a
1D	1F	.	.
.	.	2B-	4g
.	.	.	4f
=118	=118-	=118	=118
2C	0G	2c	2e
2BB-	.	2d	1f
1C	.	1c	.
.	.	.	2e
=119	=119	=119	=119
[0FF	[0F	[0A	1f
.	.	.	2r
.	.	.	2f
=120	=120-	=120	=120
0FF]	0F_	0A]	1cc
.	.	.	1cc
=121	=121	=121	=121
0r	0F_	1r	1dd
.	.	1F	1dd
=122	=122-	=122	=122
0r	0F]	1c	1.cc
.	.	1c	.
.	.	.	4b-
.	.	.	4a
=123	=123	=123	=123
*	*M2/1	*	*
*	*met(C|)	*	*
*	*rscale:1	*	*
0r	0r	1.d	2b-
.	.	.	2a
.	.	.	2f
.	.	[2c	[2g
=124	=124	=124	=124
0r	0r	2c]	2g]
.	.	4B-	1a
.	.	4A	.
.	.	1B-	.
.	.	.	2g
=125	=125	=125	=125
1r	0r	1A	1.a
[1A	.	2r	.
.	.	2A	4g
.	.	.	4f
=126	=126	=126	=126
0A]	0r	1.c	0e
.	.	4d	.
.	.	4e	.
=127	=127	=127	=127
1A	0r	1.f	0r
1A	.	.	.
.	.	2e	.
=128	=128	=128	=128
1B-	0r	1d	1r
1A	.	1c	2.e
.	.	.	4f
=129	=129	=129	=129
2G	0r	0d	2g
1F	.	.	1a
4E	.	.	2b-
4D	.	.	.
=130	=130	=130	=130
1C	1r	0e	1cc
1C	1c	.	1g
=131	=131	=131	=131
1BB-	1d	0f	1b-
1F	2c	.	1a
.	2A	.	.
=132	=132	=132	=132
1G	4B-	1d	1g
.	4A	.	.
.	4G	.	.
.	4F	.	.
2r	2E	2c	2r
[2D	[2F	[2d	[2a
=133	=133	=133	=133
2D]	2F]	4d]	2a]
.	.	4c	.
2E	2E	1c	2g
1F	1D	.	2f
.	.	2B-	4e
.	.	.	4d
=134	=134	=134	=134
1G	1C	1.c	1e
1r	2F	.	2a
.	2G	2B-	2g
=135	=135	=135	=135
2.F	2.A	2A	2.cc
.	.	2.F	.
4G	4B-	.	4b-
2A	2c	.	4a
.	.	4G	4g
[2D	[2d	2A	[2f
=136	=136	=136	=136
4D]	2d]	2F	4f]
4E	.	.	4g
1F	2.c	2.f	4a
.	.	.	4b-
.	.	.	2a
.	4A	4e	.
2G	2B-	2d	[2g
=137	=137	=137	=137
2C	2c	2c	2g]
2D	2F	2B-	1f
1C	1G	[1c	.
.	.	.	2e
=138	=138	=138	=138
2AA	[0Fl	2c]	[0fl
1BB-	.	1d	.
4AA	.	4c	.
4GG	.	4B-	.
=139	=139	=139	=139
0FFl	0F]	0cl	0f]
*	*rscale:1	*	*
==	==	==	==
*-	*-	*-	*-
!!!RDF**kern: l=long note in original notation
!!!system-decoration: s1,s2,s3,s4
!!!RDF**kern: i = editorial accidental
!!!ENC: Chris Gage 04-02-2014
!!!END: 2020/10/20/
!!!EED: Jesse Rodin
!!!EEV: 2020/10/23/
!!attribution-level@Jos: 4b (almost certainly by another composer [double question mark])
!!!ONB: Translated from MusicXML and edited on 2020/10/23/ by Craig Sapp
!!muse2ps: T^@{OPR}^u^@{ONM}{. }@{OTL}^C^Compere/Josquin?\n@{SCT}^i2I150v90,90,90,120c120z18l2770t130
